apps/web/public/images/growth.svg

<svg width="24" height="25" viewBox="0 0 24 25" fill="none" xmlns="http://www.w3.org/2000/svg">
<path d="M21.9199 6.75965C21.8185 6.5153 21.6243 6.32112 21.3799 6.21965C21.2597 6.16841 21.1306 6.14123 20.9999 6.13965H15.9999C15.7347 6.13965 15.4804 6.24501 15.2928 6.43254C15.1053 6.62008 14.9999 6.87443 14.9999 7.13965C14.9999 7.40486 15.1053 7.65922 15.2928 7.84676C15.4804 8.03429 15.7347 8.13965 15.9999 8.13965H18.5899L12.9999 13.7296L9.70994 10.4296C9.61698 10.3359 9.50637 10.2615 9.38452 10.2108C9.26266 10.16 9.13195 10.1339 8.99994 10.1339C8.86793 10.1339 8.73722 10.16 8.61536 10.2108C8.4935 10.2615 8.3829 10.3359 8.28994 10.4296L2.28994 16.4296C2.19621 16.5226 2.12182 16.6332 2.07105 16.7551C2.02028 16.8769 1.99414 17.0076 1.99414 17.1396C1.99414 17.2717 2.02028 17.4024 2.07105 17.5242C2.12182 17.6461 2.19621 17.7567 2.28994 17.8496C2.3829 17.9434 2.4935 18.0178 2.61536 18.0685C2.73722 18.1193 2.86793 18.1454 2.99994 18.1454C3.13195 18.1454 3.26266 18.1193 3.38452 18.0685C3.50637 18.0178 3.61698 17.9434 3.70994 17.8496L8.99994 12.5496L12.2899 15.8496C12.3829 15.9434 12.4935 16.0178 12.6154 16.0685C12.7372 16.1193 12.8679 16.1454 12.9999 16.1454C13.132 16.1454 13.2627 16.1193 13.3845 16.0685C13.5064 16.0178 13.617 15.9434 13.7099 15.8496L19.9999 9.54965V12.1396C19.9999 12.4049 20.1053 12.6592 20.2928 12.8468C20.4804 13.0343 20.7347 13.1396 20.9999 13.1396C21.2652 13.1396 21.5195 13.0343 21.707 12.8468C21.8946 12.6592 21.9999 12.4049 21.9999 12.1396V7.13965C21.9984 7.00897 21.9712 6.87987 21.9199 6.75965Z" fill="#8585D3"/>
</svg>

<svg width="24" height="25" fill="none" xmlns="http://www.w3.org/2000/svg">
  <path d="M21.92 6.76a1 1 0 0 0-.54-.54 1 1 0 0 0-.38-.08h-5a1 1 0 0 0 0 2h2.59L13 13.73l-3.29-3.3a1 1 0 0 0-1.42 0l-6 6a1 1 0 0 0 0 1.42.998.998 0 0 0 1.42 0L9 12.55l3.29 3.3a.998.998 0 0 0 1.42 0L20 9.55v2.59a1 1 0 0 0 2 0v-5a.997.997 0 0 0-.08-.38Z" fill="#8585D3" />
</svg>
